X:1
T:Title
%%score [ ( 1 2 ) ( 3 4 ) ]
L:1/8
Q:1/4=120
M:4/4
K:D
V:1 treble nm="Midi_74"
V:2 treble 
V:3 bass nm="Midi_74"
V:4 bass 
V:1
 A8 | B4 d4 | c8 || B8 | A4 F4 | E4"^George Mursell Garrett\n(1834-1897)" G4 | F8 |] %7
V:2
 F8 | D4 D4 | G8 || F8 | E4 D4 | D4 C4 | D8 |] %7
V:3
 D8 | B,4 A,4 | G,8 || B,8 | E,4 A,4 | B,4 A,4 | A,8 |] %7
V:4
 D,8 | G,4 F,4 | E,8 || D,8 | C,4 D,4 | G,,4 A,,4 | D,8 |] %7

